!!!!SEGMENT: pl-kk--kk-i-38--016_lasso-orlando-di--quid-prodest-homini.krn
!!!cenid: 16xx:1266
!!!COM: Lasso, Orlando di
!!!COM-rismid: pe506
!!!CDT: ~1532-1594/06/14
!!!CNT: French-Flemish
!!!OTL: Quid prodest homini
!!!PDT:
!!!AGN: Sacred
!!!SMS-siglum: PL-Kk
!!!SMS-shelfmark: Kk.I.38
!!!SMS-shelfwork: 016 W
!!!SMS-variant:
!!!SMS-altvar:
!!!NIFC-rismid: 1001154403
!!!URL-scan: http://repozytorium.nifc.pl/skany/pl-kk-nut--i-38
!!!ONB-nifc: Lib. 4. Fol. 17. 2da parte (jeśli występuje), należy do utworu tytułowego
**kern	**text
*Iempty	*
*I"Baſso Ripieno.	*
*clefF4	*
*k[]	*
*F:	*
*M2/2	*
*met(C|)	*
!LO:TX:a:i:t=Lib. 4. Fol. 17.	!
!LO:TX:t=P:problem:przed oznaczeniem metrycznym akord c A F czarnymi nutami bez kaud	!
!LO:TX:t=P:problem:kreska pseudotaktowa	!
00r	.
=1-	=1-
.	.
=2-	=2-
!LO:TX:t=P:problem:kreska pseudotaktowa	!
0F	Quid
=3-	=3-
1E	pro-
!LO:TX:t=P:problem:kreska pseudotaktowa	!
[<1F	-dest?
=4-	=4-
!LO:TX:t=P:problem:kreska pseudotaktowa	!
1F]	.
1rA	.
=5-	=5-
*	*ij
0F	Quid
=6-	=6-
1D	pro-
*lig	*
1C	-dest?
*	*Xij
=7-	=7-
!LO:TX:t=P:problem:kreska pseudotaktowa	!
1F	.
*Xlig	*
1r	.
=8-	=8-
2.BB-X/	Ho-
4BB-/	-mi-
!LO:TX:t=P:problem:kreska pseudotaktowa	!
1C	-ni
=9-	=9-
2r	.
*2\right	*
!LO:TX:t=P:problem:2\right:global	!
2F\	si
1BBny	mun-
=10-	=10-
2FF,</	-dum
1F	u-
!LO:TX:t=P:problem:kreska pseudotaktowa	!
2E\	-ni-
=11-	=11-
2.F\	-ver-
4E\	.
1D	.
=12-	=12-
!LO:TX:t=P:problem:kreska pseudotaktowa	!
1C	-sum,
2rBB	.
!LO:TX:t=P:problem:kreska pseudotaktowa	!
2AA/	si
=13-	=13-
(>2.A\	mun-
4G\)	.
2F\	-dum
!LO:TX:t=P:problem:kreska pseudotaktowa	!
!LO:SIC:v:t=custos F	!
2E\	.
!LO:LB:g=original	!
=14-	=14-
2F\	u-
2C/	-ni-
!LO:TX:t=P:problem:kreska pseudotaktowa	!
1D	-ver-
=15-	=15-
2BBn,</	-sum
2C/	lu-
1GG	-cre-
=16-	=16-
!LO:TX:t=P:problem:kreska pseudotaktowa	!
1C	-t(ur)
1r	.
=17-	=17-
!LO:TX:t=P:problem:kreska pseudotaktowa	!
2r	.
1.BB-X	a-
=18-	=18-
2BB-X/	-ni-
!LO:TX:t=P:problem:kreska pseudotaktowa	!
1BB-	-m(ae)
=19-	=19-
1F	ve-
1C	-rò
=20-	=20-
*lig	*
1AA	su-
1D	.
*Xlig	*
=21-	=21-
!LO:TX:t=P:problem:kreska pseudotaktowa	!
1C	-(ae)
!LO:N:vis=0	!
1r	.
=22-	=22-
1ryy	.
1r	.
=23-	=23-
!LO:TX:t=P:problem:kreska pseudotaktowa	!
1.BB-X	a-
2BB-/	-ni-
=24-	=24-
!LO:TX:t=P:problem:kreska pseudotaktowa	!
1BB-	-m(ae)
1F	ve-
=25-	=25-
1C	-rò
*lig	*
1AA	su-
=26-	=26-
1D	.
*Xlig	*
!LO:TX:t=P:problem:kreska pseudotaktowa	!
1C	-(ae)
=27-	=27-
1r	.
2.G\	de-
!LO:TX:t=P:problem:kreska pseudotaktowa	!
4G\	-tri-
=28-	=28-
2G\	-men-
!LO:TX:t=P:problem:kreska pseudotaktowa	!
!LO:SIC:v:t=custos En	!
2G\	-tum
!LO:LB:g=original	!
0Eny	.
=29-	=29-
1C	pa-
=30-	=30-
0D	-tia-
=31-	=31-
!LO:TX:t=P:problem:kreska pseudotaktowa	!
1GG	-t(ur)?
!LO:TX:t=P:problem:kreska pseudotaktowa	!
1r	.
=32-	=32-
2.G\	de-
!LO:TX:t=P:problem:kreska pseudotaktowa	!
4G\	-tri-
2G\	-men-
!LO:TX:t=P:problem:kreska pseudotaktowa	!
2G\	-tum
=33-	=33-
0En	pa-
=34-	=34-
1C	-ti-
0D	-at(ur);
=35-	=35-
!LO:TX:t=P:problem:kreska pseudotaktowa	!
1GG,<	.
=36-	=36-
1C,<	aût
2BB/ny	quam
2.En\	da-
=37-	=37-
4D/	.
4C/	.
!LO:TX:t=P:problem:kreska pseudotaktowa	!
4BB/	.
2AA/	.
!LO:TX:t=P:problem:kreska pseudotaktowa	!
2A,<\	-bit
=38-	=38-
1G	ho-
!LO:TX:t=P:problem:kreska pseudotaktowa	!
1C,<	-mo
=39-	=39-
00r	.
=40-	=40-
.	.
=41-	=41-
!LO:TX:t=P:problem:kreska pseudotaktowa	!
1r	.
2r	.
!LO:TX:t=P:problem:kreska pseudotaktowa	!
2F\	com
=42-	=42-
2G\	mu-
2.A\	-ta-
4G\	.
4F\	.
!LO:TX:t=P:problem:kreska pseudotaktowa	!
!LO:SIC:v:t=custos D	!
4E\	.
!LO:LB:g=original	!
=43-	=43-
2D/	.
4C/	.
4BB/	.
!LO:TX:t=P:problem:kreska pseudotaktowa	!
2AA/	.
2F\	-tio-
=44-	=44-
2E\	.
4D/	.
!LO:TX:t=P:problem:kreska pseudotaktowa	!
4C/	.
1G	.
=45-	=45-
!LO:TX:t=P:problem:kreska pseudotaktowa	!
0C,<	-nem
=46-	=46-
!LO:TX:t=P:problem:kreska pseudotaktowa	!
0r	.
=47-	=47-
1C	pro
2.F\	a-
!LO:TX:t=P:problem:kreska pseudotaktowa	!
4E\	-ni-
=48-	=48-
(<2D/	-ma
!LO:TX:t=P:problem:kreska pseudotaktowa	!
2C/)	.
1BB-X	su-
=49-	=49-
2.AA/	-a?
!LO:TX:t=P:problem:kreska pseudotaktowa	!
4BB-/	.
2.C/	.
8BB-/L	.
8AA/J	.
=50-	=50-
!LO:TX:t=P:problem:kreska pseudotaktowa	!
1GG,<	.
00r	.
=51-	=51-
.	.
=52-	=52-
1r	.
=53-	=53-
!LO:TX:t=P:problem:kreska pseudotaktowa	!
1C	pro
2.F\	a-
!LO:TX:t=P:problem:kreska pseudotaktowa	!
4E\	-ni-
=54-	=54-
2D/	-ma
!LO:TX:t=P:problem:kreska pseudotaktowa	!
2C/	.
1BB-X	su-
=55-	=55-
1FF	.
!LO:TX:t=P:problem:podwójna kreska pseudotaktowa	!
!LO:N:vis=0	!
1C;>	-a?
!LO:LB:g=original	!
=56||-	=56||-
*M2/1	*
*met(C|)	*
!LO:TX:a:i:t=2da parte	!
0r	.
=57-	=57-
1F	Fu-
!LO:TX:t=P:problem:kreska pseudotaktowa	!
1G	-tu-
=58-	=58-
2F,>\	-rum
!LO:TX:t=P:problem:kreska pseudotaktowa	!
2D\	eſt
1E	e-
=59-	=59-
!LO:TX:t=P:problem:kreska pseudotaktowa	!
1D,<	-nim,
2r	.
!LO:TX:t=P:problem:kreska pseudotaktowa	!
2G\	Fu-
=60-	=60-
2D\	-tu-
2F\	-ru(m)
!LO:TX:t=P:problem:kreska pseudotaktowa	!
1C	eſt
=61-	=61-
2rC	.
*	*ij
!LO:TX:t=P:problem:kreska pseudotaktowa	!
2F\	fu-
2BB-X/	-tu-
!LO:TX:t=P:problem:kreska pseudotaktowa	!
2GG/	-ru(m)
=62-	=62-
!LO:TX:t=P:problem:kreska pseudotaktowa	!
1AA,<	eſt
*	*Xij
1C	e-
=63-	=63-
!LO:TX:t=P:problem:kreska pseudotaktowa	!
1F,<	-nim
0r	.
=64-	=64-
1C	ut
=65-	=65-
2.F\	Fi-
4F\	-li-
!LO:TX:t=P:problem:kreska pseudotaktowa	!
1BB-X	-us
!LO:LB:g=original	!
=66-	=66-
2.F\	Ho-
4F\	-mi-
!LO:TX:t=P:problem:kreska pseudotaktowa	!
1D	-nis
=67-	=67-
2C/	ve-
2C/	-ni-
1C	-at
=68-	=68-
*M3/2	*
2GG/	in
2.GG/	glo-
!LO:TX:t=P:problem:kreska pseudotaktowa	!
4GG/	-ri-
=69-	=69-
2C/	-a
!LO:TX:t=P:problem:kreska pseudotaktowa	!
1BB-X	Pa-
=70-	=70-
2C,</	-tris
!LO:TX:t=P:problem:kreska pseudotaktowa	!
1GG	su-
=71-	=71-
1D,<	-i,
!LO:TX:t=P:problem:kreska pseudotaktowa	!
2GG/	in
=72-	=72-
2.GG/	glo-
4GG/	-ri-
!LO:TX:t=P:problem:kreska pseudotaktowa	!
2C/	-a
=73-	=73-
1BB-X	Pa-
1F\	-tris
=74-	=74-
1C	su-
=75-	=75-
*M2/2	*
*met(c|)	*
!LO:TX:t=P:problem:kreska pseudotaktowa	!
1F,<	-i
00r	.
=76-	=76-
.	.
=77-	=77-
00r	.
=78-	=78-
.	.
=79-	=79-
!LO:TX:t=P:problem:kreska pseudotaktowa	!
1r	.
=80-	=80-
1AA	et
!LO:TX:t=P:problem:kreska pseudotaktowa	!
1D	tunc
=81-	=81-
*lig	*
1G	red-
1GG	.
*Xlig	*
=82-	=82-
!LO:TX:t=P:problem:kreska pseudotaktowa	!
1C,<	-det
*	*ij
1AA	et
=83-	=83-
1D	tunc
0GG	red-
=84-	=84-
!LO:TX:t=P:problem:kreska pseudotaktowa	!
1C	-det
*	*Xij
!LO:LB:g=original	!
=85-	=85-
1rB	.
2r	.
!LO:TX:t=P:problem:kreska pseudotaktowa	!
2C/	u-
=86-	=86-
2.D\	-ni-
!LO:TX:t=P:problem:kreska pseudotaktowa	!
4F\	-cu-
2E\	-i-
!LO:TX:t=P:problem:kreska pseudotaktowa	!
2F\	-que
=87-	=87-
2rC	.
2C/	se-
2.F\	-cun-
!LO:TX:t=P:problem:kreska pseudotaktowa	!
4E\	.
=88-	=88-
*lig	*
1D	.
1C	.
*Xlig	*
=89-	=89-
!LO:TX:t=P:problem:kreska pseudotaktowa	!
1BB-X	-dum
2r	.
2.F\	o-
=90-	=90-
4F\	-pe-
!LO:TX:t=P:problem:kreska pseudotaktowa	!
2A\	-ra
1G	su-
=91-	=91-
!LO:TX:t=P:problem:kreska pseudotaktowa	!
1F,<	-a
1r	.
=92-	=92-
2r	.
!LO:TX:t=P:problem:kreska pseudotaktowa	!
2G\	se-
(>2.A\	-cun-
4G\)	.
=93-	=93-
1F	-dùm
!LO:TX:t=P:problem:kreska pseudotaktowa	!
1C	.
=94-	=94-
2r	.
2.F\	o-
4F\	-pe-
!LO:TX:t=P:problem:kreska pseudotaktowa	!
2A\	-ra
=95-	=95-
1G	su-
!LO:TX:t=P:problem:kreska pseudotaktowa	!
0F,<	-a
!LO:LB:g=original	!
=96-	=96-
0r	.
=97-	=97-
!LO:TX:t=P:problem:kreska pseudotaktowa	!
1D	se-
=98-	=98-
1G	-cun-
!LO:TX:t=P:problem:kreska pseudotaktowa	!
1F,<	-dùm
=99-	=99-
2r	.
2.BB-X/	o-
4BB-/	-pe-
!LO:TX:t=P:problem:kreska pseudotaktowa	!
2D\	-ra
=100-	=100-
1F	su-
!LO:TX:t=P:problem:kreska pseudotaktowa	!
1C,<	-a
=101-	=101-
2r	.
2.F\	o-
4F\	-pe-
!LO:TX:t=P:problem:kreska pseudotaktowa	!
2A\	-ra
=102-	=102-
1F	su-
!LO:TX:t=P:problem:kreska pseudotaktowa	!
1C,<	-a
=103-	=103-
1r	.
2.BB-X/	o-
4BB-/	-pe-
=104-	=104-
!LO:TX:t=P:problem:kreska pseudotaktowa	!
1D,<	-ra
1BB-X	su-
=105-	=105-
!LO:TX:t=P:problem:końcowa kreska pseudotaktowa	!
0F;>	-a.
=-	=-
*-	*-
!!!RDF**kern: > = above
!!!RDF**kern: < = below
!!!EED: Antoni Szymański
!!!EST: 2021-07-29
!!!ENC: Mateusz Solarz
!!!END: 2021-07-01
